X:1
T:Title
%%score [ 1 2 3 4 ]
L:1/8
Q:1/4=120
M:2/2
K:G
V:1 treble nm="S."
V:2 treble nm="A."
V:3 treble-8 nm="T."
V:4 bass nm="B."
V:1
!p! G4 B3 c | d2"^Amyntas with his Phyllis fair" e2 d2 B2 | A4 ^c4 | d3 d d2 d2 | (^c2 d4) c2 | %5
w: A- myn- tas|with his Phyl- lis|fair, A-|myn- tas with his|Phyl * lis|
"^Francis Pilkington""^(c.1562-1638)" d8 |[M:4/4]!mf! B4 c2 d2 | c2 c2 B2 B2 | A2 A2 d3 c | %9
w: fair,|A- myn- tas|with his Phyl- lis|fair, in height of|
 B2 G2 d4 | z2 A2 e3 d | c2 c2 B2 B2 | c3!>(! B A2 G2 | F4 z4!>)! |!p! G2 GG G4 | z4!mf! G2 cc | %16
w: sum- mer's sun,|in height of|sum- mer's sun, in|height of sum- mer's|sun,|Graz'd arm in arm,|graz'd arm in|
 c2 A2 B2 B2 | A8 | z8 | z4!f! A4 | G2 A2 B4 | A2 B2 c4 | B8 | A4 z4 | z8 | z4!p! d2 dc | %26
w: arm their snow- y|flock;||and|scor- ching heat,|scor- ching heat|to|shun,||Un- der a|
 B3 A G2 G2 | F4 z4 |!mf! d2 dc B2 B2 | A2 A2 G4 | z8 |!f! e4 d2 d2 | d4 ^c4 | d8 |: z2!p! d4 c2- | %35
w: spread- ing elm sat|down,|un- der a spread- ing|elm sat down.||Where, love's de-|light- ments|done,|"Down, down,|
 c2 B4 A2- | A2 G4 F2 | (F G2 F) G4 | B2 G2 A4 | G4 =F2 F2 | E4!mp! G4 | B2 (c4 B2) | c4 z2!f! B2 | %43
w: * down, down,|* down, down,|dil * ly down,|dil- ly down,|down, dil- ly|down," Thus|did they *|sing: "There|
 A2 c2 B2 ^c2 | d4 z2!mf! d2 | e4 d4 | d4 z2!mf! d2 | g6 G2 | G4 c4 | e6 e2 | d6 c2 | c2 B2 c2 c2 | %52
w: is no life like|ours, no|life like|ours, No|heav'n on|earth to|shep- herds'|cells, to|shep- herds' cells, to|
 B2 G2 A4 | z4!f! B4 | A4 G4 | A6 A2 | G8 :| %57
w: shep- herds' cells,|no|hell to|prince- ly|bow'rs."|
V:2
 z8 | z4!p! D4 | F3 G A2 E2 | F2 D2 A3 D | A4 (A3 G) | !courtesy!^F4!mf! D4 |[M:4/4] G3 =F (E2 D2 | %7
w: |A-|myn- tas with his|Phyl- lis fair, his|Phyl- lis *|fair, in|height of sum *|
 E2) F2 G4 | F4 G2 A2 | D4 z2 D2 | E3 D C2 B,2 | C4 G4 | E3!>(! G D2 D2 | D4 z4!>)! |!p! D2 DD D4 | %15
w: * mer's sun,|of sum- mer's|sun, in|height of sum- mer's|sun, in|height of sum- mer's|sun,|Graz'd arm in arm,|
 z4!mf! E2 EE | E2 A2 A2 ^G2 | A4 z2!f! E2 | F2 G2 A2 (G=F | E4) !courtesy!^F4 | z4 z2 G2 | %21
w: graz'd arm in|arm their snow- y|flock; and|scorch- ing heat to *|* shun,|and|
 =F2 F2 E4 | D4 D4 | z4!p! D2 DE | D2 A2 A3 G | !courtesy!^F4 F4 | G3 A B2 ^c2 | d8 | z8 | %29
w: scor- ching heat|to shun,|Un- der a|spread- ing elm sat|down. Where,|love's de- light- ments|done,||
 z4!mf! G2 G=F | E2 E2 D2 D2 | A,2!f! ^C2 D2 D2 | E6 E2 | !courtesy!^F8 |:!p! G4 =F4 | E4 D4 | %36
w: un- der a|spread- ing elm sat|down. Where, love's de-|light- ments|done,|"Down, down,|down, down,|
 E4 D4 | C2 C2 B,4 | z8 | z8 | z4 z2!mp! G2 | G6 =F2 | E4 z2!f! G2 | E2 E2 G2 G2 | F4 z2!mf! G2 | %45
w: down, down,|dil- ly down,"|||Thus|did they|sing: "There|is no life like|ours, no|
 G4 F4 |!>(! G8- | G8!>)! |!mf! E8 | G6 G,2 | G,8 | z4 E4 | E3 G F4 | z4!f! D4 | (E2 F2 G2) E2 | %55
w: life like|ours,||No|heav'n on|earth|to|shep- herds' cells,|no|hell * * to|
 (F2 G4) F2 | G8 :| %57
w: prince * ly|bow'rs."|
V:3
 z8 | z8 | z8 |!p! d4 d3 B | A2 =f2 e2 e2 | d4 z4 |[M:4/4][K:treble-8]!mf! G4 c3 B | A2 A2 G4 | %8
w: |||A- myn- tas|with his Phyl- lis|fair,|in height of|sum- mer's sun,|
 z4 z2 A2 | d3 c B2 B2 | A4 z2 B2 | e2 A2 d3 d | c3!>(! d d2 B2 | A4 z4!>)! |!p! B2 BB B4 | %15
w: in|height of sum- mer's|sun, in|height of sum- mer's|sun, of sum- mer's|sun,|Graz'd arm in arm,|
 z4!mf! c2 cc | c2 c2 e2 e2 | ^c4!f! c4 | d2 B2 A2 (B2 | ^c4) d4 | z4 z2 d2 | d2 d2 G4 | %22
w: graz'd arm in|arm their snow- y|flock; and|scorch- ing heat to|* shun,|and|scorch- ing heat|
 (G3 A B2 G2) | F4!p! B2 AG | A2 =f2 e2 e2 | d8 | z8 | d2 dc B2 B2 | A2 A2 G4 |!mf! A4 B2 B2 | %30
w: to * * *|shun, Un- der a|spread- ing elm sat|down,||un- der a spread- ing|elm sat down.|Where, love's de-|
 ^c4 A2 A2- | A2!f! A2 A2 A2 | A6 A2 | A8 |: z8 | z8 | z8 | z8 | z2!p! d4 c2- | c2 B4 AB | %40
w: light- ments done,|* where, love's de-|light- ments|done,|||||"Down, down,|* down, dil- ly|
 c4!mp! e4 | d4 d4 | c4 z2!f! d2 | c2 c2 G2 G2 | A4 z2!mf! B2 | c4 A4 |!>(! B8- | B8!>)! | z8 | %49
w: down," Thus|did they|sing: "There|is no life like|ours, no|life like|ours,|||
 z4!mf! c4 | d6 G2 | G4 z2 G2 | G2 (Bc) d4 | z4!f! B4 | c2 A2 (c2 Bc | d6) c2 | B8 :| %57
w: No|heav'n on|earth to|shep- herds' * cells,|no|hell to prince * *|* ly|bow'rs."|
V:4
 z4!p! G,4 | B,3 C D2 G,2 | D2 D2 A,4 | z2 D,2 F,3 G, | A,2 D,2 A,2 A,2 | D,8 |[M:4/4] z8 | %7
w: A-|myn- tas with his|Phyl- lis fair,|A- myn- tas|with his Phyl- lis|fair,||
 z4 z2!mf! G,2 | D3 C B,2 A,2 | G,4 z2 G,2 |"^This edition  Andrew Sims 1999" C3 B, A,2 G,2 | %11
w: in|height of sum- mer's|sun, in|height of sum- mer's|
 A,4 G,4 | A,3!>(! G, F,2 G,2 | D,4 z4!>)! |!p! G,2 G,G, G,4 | z4!mf! C,2 C,C, | C,2 =F,2 E,2 E,2 | %17
w: sun, in|height of sum- mer's|sun,|Graz'd arm in arm,|graz'd arm in|arm their snow- y|
 A,8 | z8 |!f! A,4 D,4 | (E,2 F,2) G,4 | D,4 C,4 | G,,8 | D,4!p! G,2 F,E, | F,2 D,2 A,2 A,2 | D,8 | %26
w: flock;||and scorch-|ing * heat|to shun,|to|shun, Un- der a|spread- ing elm sat|down,|
 G,2 G,=F, E,2 E,2 | D,2 D,2 G,,4 |!mf! D,4 E,2 E,2 | F,2 F,2 G,4 |!f! A,4 F,2 D,2 | %31
w: un- der a spread- ing|elm sat down.|Where, love's de-|light- ments done,|where, love's de-|
 A,2 A,,2 D,2 D,2 | A,,6 A,,2 | D,8 |: z8 | z4!p! D,4 | C,4 B,,4 | A,,2 A,,2 G,,4 | G,4 =F,4 | %39
w: light- ments done, de-|light- ments|done,||"Down,|down, down,|dil- ly down,|down, down,|
 E,4 D,2 D,2 | C,4!mp! C,4 | G,6 G,2 | C,4 z2!f! G,2 | A,2 A,2 E,2 E,2 | D,4 z2!mf! G,2 | C,4 D,4 | %46
w: down, dil- ly|down," Thus|did they|sing: "There|is no life like|ours, no|life like|
!>(! G,8- | G,4!>)!!mf! G,4 | C6 C,2 | C,4 z2 C,2 | B,,6 C,2 | G,,4 C,4 | E,2 E,2 D,4 | %53
w: ours,|* No|heav'n on|earth, no|heav'n on|earth to|shep- herds' cells,|
 z4!f! G,,4 | C,2 (D,2 E,4) | D,4 D,4 | G,8 :| %57
w: no|hell to *|prince- ly|bow'rs."|

